X:1
T:Title
%%score ( 1 2 ) ( 3 4 )
L:1/8
Q:1/4=100
M:4/4
K:F
V:1 treble nm="Grand Piano, Soprano"
V:2 treble 
V:3 bass nm="Choir Pad, Bass"
V:4 bass 
V:1
 C2 [FA]2- [FA][F_A][F=A][Fd] | [Fc]F [FA]6 | C2 [EA]2- [EA][EG] [EB]2 | [CE]2 [CF]6 | %4
w: By~Herbert~Howard~Booth * * * * *||||
 C2 [FA]2- [FA][F_A][F=A][FB] | [Fc][Fd] [Fc]6 | [Fc]2 [Fd]2- [Fd][Fc] [FA]2 | F2 [EG]4 z2 | %8
w: ||||
 c2 z2 z4 | [Fd][Fc] [Ac]4 [GB]2 | [DG]2 [CF]2- [CF][CF] [EG]2- | [EG][E_A] [F=A]6 | %12
w: ||||
 [Gc]2 [FA]2- [FA][Ec][Ff][Fe] | [Fd][Fc] [Ac]4 [GB]2 | [DG]2 [CF]2- [CF]F [EA]2- | %15
w: |||
 [EA][EG] [CF]6 |[M:3/4][Q:1/4=105] [FA][FB] [Ac]2 [Bd]2 | [Ac]2 [FA]2 [GB]2 | [Ac]2 [Af]2 e2 | %19
w: ||||
 [Bd]2 [Ac]4 | [Ac][Bd] [Ac]2 [FA]2 | [CF]2 [CF]2 [CE]2 | z2 G4- | G2 z2 z2 | %24
w: |||||
 [CA][CB] [Cc]2 [Fc]2 | [FA]2 [CF]3 [CE] | F2 [Fd]2 [Fd]2 | [^Fc]2 [GB]4 | [DA][DG] [DF]2 [DE]2 | %29
w: |||||
 [DF]2 [EG]2 [DA]2- | [DA][DB] [Fc]4- | [Fc]2 [Ac]4 | [GB]2 [FA]2 [EG]2 | [DF]2 E [EA]3 | z2 F4- | %35
w: ||||||
 F6- | F2 z2 z2 |] %37
w: ||
V:2
 x8 | x8 | x8 | x8 | x8 | x8 | x8 | x8 | FG [FA]2- [FA][Fc][Ff][Fe] | x8 | x8 | x8 | x8 | x8 | x8 | %15
 x8 |[M:3/4] x6 | x6 | x6 | x6 | x6 | x6 | [CF]2 C4 | =B,2 [CG]4 | x6 | x6 | x6 | x6 | x6 | x6 | %30
 x6 | x6 | x6 | x6 | [EG]2 C4 | D2 C4- | C2 z2 z2 |] %37
V:3
 [F,A,]2 [F,C]2- [F,C][F,=B,][F,C][F,_B,] | [A,C][A,C] [F,C]6 | %2
 [C,E,]2 [C,C]2- [C,C][C,B,] [C,G,]2 | [C,B,]2 [F,A,]6 | [F,A,]2 [F,C]2- [F,C][F,=B,][F,C][_B,D] | %5
 [A,C][_A,=B,] [=A,C]6 | [A,C]2 B,2- B,/ z/ [A,C] [F,C]2 | [D,=B,]2 [C,C]4 z2 | C2 z2 z4 | %9
 B,[A,C] [^F,_E]4 [G,D]2 | [C,B,]2 [C,A,]2- [C,A,][C,A,] [C,C]2- | [C,C][C,C] [F,C]6 | %12
 [E,C]2 [F,C]2- [F,C][G,B,][A,C][A,C] | B,[A,C] [^F,_E]4 [G,D]2 | %14
 [B,,B,]2 [C,A,]2- [C,A,][C,A,] [C,C]2- | [C,C][C,B,] [F,A,]6 |[M:3/4] [F,C][F,C] [F,F]2 [F,F]2 | %17
 [F,F]2 [F,C]2 [F,C]2 | [F,C]2 [F,C]2 [F,F]2 | [F,F]2 [F,F]4 | [F,F][F,F] [F,F]2 [F,C]2 | %21
 [F,A,]2 [F,C]2 [G,B,]2 | [F,A,]2 [E,G,]4 | [D,F,]2 [C,E,]4 | [C,F,][C,G,] [F,A,]2 [F,A,]2 | %25
 [F,C]2 [F,A,]3 [G,B,] | [A,C]2 [B,D]2 [B,D]2 | [A,D]2 [G,D]4 | [G,C][G,B,] [D,A,]2 [D,G,]2 | %29
 [D,A,]2 [C,C]2[K:treble] C2- | C[B,C] [A,C]4- | [A,C]2[K:bass] [^F,_E]4 | [G,D]2 [C,C]2 [^C,B,]2 | %33
 [D,A,]2 [C,B,] [C,C]3 | z2 A,4 | z6 | z6 |] %37
V:4
 x8 | x8 | x8 | x8 | x8 | x8 | x8 | x8 | D,E, [F,C]2- [F,C][G,B,][A,C][A,C] | x8 | x8 | x8 | x8 | %13
 x8 | x8 | x8 |[M:3/4] x6 | x6 | x6 | x6 | x6 | x6 | x6 | x6 | x6 | x6 | x6 | x6 | x6 | %29
 x4[K:treble] x2 | x6 | x2[K:bass] x4 | x6 | x6 | [C,B,]2 F,4- | [F,-B,]2 [F,A,]4- | %36
 [F,A,]2 z2 z2 |] %37

